packages/icons/src/eye-slash-fill.svg

<svg width="24" height="24" viewBox="0 0 24 24" fill="none" xmlns="http://www.w3.org/2000/svg">
<path d="M19.8 22.6L15.6 18.45C15.0167 18.6333 14.4292 18.7708 13.8375 18.8625C13.2458 18.9542 12.6333 19 12 19C9.48333 19 7.24167 18.3042 5.275 16.9125C3.30833 15.5208 1.88333 13.7167 1 11.5C1.35 10.6167 1.79167 9.79582 2.325 9.03749C2.85833 8.27915 3.46667 7.59999 4.15 6.99999L1.4 4.19999L2.8 2.79999L21.2 21.2L19.8 22.6ZM12 16C12.1833 16 12.3542 15.9917 12.5125 15.975C12.6708 15.9583 12.8417 15.925 13.025 15.875L7.625 10.475C7.575 10.6583 7.54167 10.8292 7.525 10.9875C7.50833 11.1458 7.5 11.3167 7.5 11.5C7.5 12.75 7.9375 13.8125 8.8125 14.6875C9.6875 15.5625 10.75 16 12 16ZM19.3 16.45L16.125 13.3C16.2417 13.0167 16.3333 12.7292 16.4 12.4375C16.4667 12.1458 16.5 11.8333 16.5 11.5C16.5 10.25 16.0625 9.18749 15.1875 8.31249C14.3125 7.43749 13.25 6.99999 12 6.99999C11.6667 6.99999 11.3542 7.03332 11.0625 7.09999C10.7708 7.16665 10.4833 7.26665 10.2 7.39999L7.65 4.84999C8.33333 4.56665 9.03333 4.35415 9.75 4.21249C10.4667 4.07082 11.2167 3.99999 12 3.99999C14.5167 3.99999 16.7583 4.69582 18.725 6.08749C20.6917 7.47916 22.1167 9.28332 23 11.5C22.6167 12.4833 22.1125 13.3958 21.4875 14.2375C20.8625 15.0792 20.1333 15.8167 19.3 16.45ZM14.675 11.85L11.675 8.84999C12.1417 8.76665 12.5708 8.80415 12.9625 8.96249C13.3542 9.12082 13.6917 9.34999 13.975 9.64999C14.2583 9.94999 14.4625 10.2958 14.5875 10.6875C14.7125 11.0792 14.7417 11.4667 14.675 11.85Z" fill="black"/>
</svg>

<svg xmlns="http://www.w3.org/2000/svg" width="24" height="24" fill="none" viewBox="0 0 24 24">
  <path fill="#000" d="m19.8 22.6-4.2-4.15c-.583.183-1.17.32-1.762.413-.592.091-1.205.137-1.838.137-2.517 0-4.758-.696-6.725-2.087C3.308 15.52 1.883 13.717 1 11.5c.35-.883.792-1.704 1.325-2.463A11.514 11.514 0 0 1 4.15 7L1.4 4.2l1.4-1.4 18.4 18.4-1.4 1.4ZM12 16a4.9 4.9 0 0 0 .512-.025c.159-.017.33-.05.513-.1l-5.4-5.4c-.05.183-.083.354-.1.513a4.81 4.81 0 0 0-.025.512c0 1.25.438 2.313 1.313 3.188C9.687 15.562 10.75 16 12 16Zm7.3.45-3.175-3.15c.117-.283.208-.57.275-.863.067-.291.1-.604.1-.937 0-1.25-.438-2.313-1.313-3.188C14.313 7.437 13.25 7 12 7a4.2 4.2 0 0 0-.938.1 4.24 4.24 0 0 0-.862.3L7.65 4.85A11.08 11.08 0 0 1 12 4c2.517 0 4.758.696 6.725 2.087C20.692 7.48 22.117 9.283 23 11.5a11.696 11.696 0 0 1-1.512 2.738A11.007 11.007 0 0 1 19.3 16.45Zm-4.625-4.6-3-3a2.296 2.296 0 0 1 1.287.112c.392.159.73.388 1.013.688.283.3.488.646.613 1.037.125.392.154.78.087 1.163Z"/>
</svg>
